X:80
T: Graf Friedrich
N: Q0048F
O: Mitteleuropa, Deutschland (DDR) , Pommern, Ruegen
N: Zwei nahe Strophenvarianten abgedruckt. Hier nur die erste kodiert.
R: Ballade, Hochzeit, Mord / Unfall, Tod
M: 6/8
L: 1/8
K: G
D | DGGFcA | FDz3
D | GFGFcA | FD
D | B2GB2G | c2BA2
B | GFEDGA | AGFG2
D | B2GB2G | c2BA2
B | GFEDGA | AGFG2

